X: 20390
T: John Doherty's
R: barndance
M: 4/4
K: Dmajor
AF|:DEFG A2Bc|d2ef d2AF|G2FG AFDE|(3FGF E2 E2 AF|
DEFG A2Bc|d2ef d2AF|G2FG AFEG|1 F2 D2 D2 A,C:|2 F2 D2 D2 (3Bcd||
e2 A2 A2 fe|d2 D2 D2 fe|dc BA GF ED|C2 E2 E2 AF|
DEFG A2Bc|d2ef d2AF|G2FG AFEG|1 F2 D2 D2 cd:|2 F2 D2 D2 A,C||

